dist/img/email-icon.svg

<svg width="21" height="21" viewBox="0 0 21 21" fill="none" xmlns="http://www.w3.org/2000/svg">
<path d="M20.1797 11.9561C20.6327 11.9561 21 11.5888 21 11.1357V5.7627C21 3.95341 19.528 2.48145 17.7188 2.48145H3.28125C1.47197 2.48145 0 3.95341 0 5.7627V15.2373C0 17.0466 1.47197 18.5186 3.28125 18.5186H17.7188C19.528 18.5186 21 17.0466 21 15.2373C21 14.7842 20.6327 14.417 20.1797 14.417C19.7266 14.417 19.3594 14.7842 19.3594 15.2373C19.3594 16.1419 18.6234 16.8779 17.7188 16.8779H3.28125C2.37661 16.8779 1.64062 16.1419 1.64062 15.2373V5.93652L8.7673 10.3681C9.30169 10.7003 9.90084 10.8665 10.5 10.8665C11.0992 10.8665 11.6983 10.7003 12.2327 10.3681L19.3594 5.93652V11.1357C19.3594 11.5888 19.7266 11.9561 20.1797 11.9561ZM11.3663 8.97479C10.832 9.30706 10.168 9.3071 9.63367 8.97479L2.32513 4.43018C2.59453 4.23634 2.92478 4.12207 3.28125 4.12207H17.7188C18.0752 4.12207 18.4055 4.23638 18.6749 4.43022L11.3663 8.97479Z" fill="#2A2E54"/>
</svg>

<svg version="1.1" id="Capa_1" xmlns="http://www.w3.org/2000/svg" xmlns:xlink="http://www.w3.org/1999/xlink" x="0px" y="0px"
	 viewBox="0 0 21 21" style="enable-background:new 0 0 21 21;" width="21" height="21" xml:space="preserve">
<style type="text/css">
	.st0{fill:#130D25;}
</style>
<path class="st0" d="M20.2,12c0.5,0,0.8-0.4,0.8-0.8V5.8c0-1.8-1.5-3.3-3.3-3.3H3.3C1.5,2.5,0,4,0,5.8v9.5c0,1.8,1.5,3.3,3.3,3.3
	h14.4c1.8,0,3.3-1.5,3.3-3.3c0-0.5-0.4-0.8-0.8-0.8c-0.5,0-0.8,0.4-0.8,0.8c0,0.9-0.7,1.6-1.6,1.6H3.3c-0.9,0-1.6-0.7-1.6-1.6V5.9
	l7.1,4.4c0.5,0.3,1.1,0.5,1.7,0.5c0.6,0,1.2-0.2,1.7-0.5l7.1-4.4v5.2C19.4,11.6,19.7,12,20.2,12z M11.4,9c-0.5,0.3-1.2,0.3-1.7,0
	L2.3,4.4c0.3-0.2,0.6-0.3,1-0.3h14.4c0.4,0,0.7,0.1,1,0.3L11.4,9z"/>
</svg>
